!!!ONB: MCCC : ICS0248_00 : Extracted Monophonic Melody
!!!COM: Saint-Saëns, Camille
!!!OTL: Valse gaie, Op. 139
!!!SCT: Op.139
!!!ODT: 1912///
**kern
*staff1
*clefG2
*k[b-e-]
*B-:
*M3/4
16bb-
8.aa
16gg
=2
4ff#
8r
16r
16gg
8.ff
16ee-
=3
4dd
8r
16r
16gg
8.ff
16ee-
=4
4dd
8r
16r
16ee-
8.dd
16cc
=5
4b-
8r
16r
16a
8.b-
16cc
=6
4dd
8r
16r
16a
8.b-
16dd-
=7
4dd
8r
16r
16f
8.b-
16dd
=8
4gg
8r
16r
16gg
8.ff
16ee-
=9
4dd
8r
16r
16bb-
8.aa
16gg
=10
4ff#
8r
16r
16gg
8.ff
16ee-
=11
4dd
8r
16r
16gg
8.ff
16ee-
=12
4dd
8r
16r
16ee-
8.dd
16cc
=13
4b-
8r
16r
16a
8.b-
16cc
=14
4dd-
8r
16r
16cc
8.dd-
16ee
=15
4ff
8r
16r
16a-
8.dd-
16ff
=16
4bb-
8r
16r
16bb-
8.aa-
16ff#
=17
4ff
4r
4r
=18
12B-
12c
12d-
12c
12d-
12e-
12d-
12e-
12f
=19
12a-
12f
12e-
12d-
12e-
12f
12a
12f
12e-
=20
12d-
12e-
12f
12b-
12f
12e-
12d
12e-
12f
=21
12e-
12g
12b-
4gg
12B-
12c
12d
=22
12c
12d
12e-
12d
12e-
12f
12e-
12f
12g
=23
12b-
12g
12f
12e-
12f
12g
12b
12g
12f
=24
12e-
12f
12g
12cc
12g
12f
12e
12f
12g
=25
12f
12a
12cc
4aa
12f
12g
12a
=26
12g
12a
12b-
12a
12b-
12cc
12a
12b-
12dd-
=27
12gg
12dd
12b-
12f
12b-
12dd
12ff
12bb-
12ddd
=28
12ggg
12ddd
12bb
12gg
12dd
12b
12g
12b
12dd
=29
12gg
12ee-
12cc
4a
12f
12g
12a
=30
12g
12a
12b-
12a
12b-
12cc
12a
12b-
12dd-
=31
12gg
12b-
12dd
12ff
12bb-
12ddd
12fff
12bbb-
12dddd
=32
12gggg
12dddd
12bbb
12ggg
12ddd
12bb
12gg
12bb
12ddd
=33
12ggg
12eee-
12ccc
4aa
8r
8d
=34
8r
8e-
8r
8f
8r
8g
=35
8r
8ff
8ff
8ff
8ff
8ff
=36
8ff
8ff#
8gg
8aa
8bb-
8ccc
=37
8ddd
8eee-
8eee
8fff
8r
8dd
=38
8r
8ee-
8r
8ff
8r
8gg
=39
8r
8ff
8aa
8bb-
8ccc
8ddd
=40
8eee-
8eee-
8eee-
8fff
8ggg
8aaa
=41
4bbb-
4bbb-
4bb-
=42
4r
4bbb-
4bb-
=43
4r
4bbb-
4bb-
=44
4r
4bbb-
4bb-
=45
4r
4bb-
4b-
=46
4bb-
4b-
4bb-
=47
4b-
4bb-
4b-
=48
4bb-
4b-
4bb-
=49
4r
4r
4bb-
=50
4r
4r
4ff
=51
4r
4r
4ff#
=52
4r
4r
4dd-
=53
4r
4r
4dd
=54
4ee-
4r
4b
=55
4b-
4r
4b-
=56
4dd-
4r
4bb-
=57
4bb
4bb-
4aa-
=58
4gg
4aa-
4bb-
=59
4aa
4gg#
4ff#
=60
4ee#
4ff#
4aa-
=61
4dd-
4ff#
4b
=62
4ee
4a
4dd
=63
4r
4f#
4a
=64
4ff#
4ff
8aa-
8ff
=65
8bb-
8aa-
8bb
8ff
8ddd-
8aa-
=66
8eee-
8ff
8ddd-
8aa-
8bb
8ff
=67
8aa
8ff#
8bb-
8ff
8bb
8ff#
=68
8bb-
8dd-
8aa
8ff#
8bb-
8dd-
=69
8bb
8dd
8bb-
8ff
8aa-
8b-
=70
8ff#
8ee-
8ff
8b-
8ff#
8ee-
=71
8aa-
8b
8ff
8ee-
8ff#
8b
=72
8aa
8dd
4bb-
4ggg
=73
4aaa
4ggg
4fff
=74
4eee
4fff
4ggg
=75
4fff#
4fff
4eee-
=76
4ddd
4eee-
4fff
=77
4bb-
4eee-
4aa-
=78
4ddd-
4ff#
4bb[
=79
4bb]
4bb-
4aa-[
=80
4aa-]
4ff#
8F#
8A-
=81
8B-
8B
8B-
8A-
8F#
8A-
=82
4r
4ff#
4r
=83
4r
4bb
4r
=84
4r
4fff
8B-
8B
=85
8c#
8d
8c#
8B
8A#
8B
=86
4r
4bb-
4r
=87
4r
4ddd
4r
=88
4r
4aaa-
4r
=89
12d
12e
12f#
12b
12e
12a-
12f#
12g#
12a
=90
12dd
12f#
12a
12g#
12a
12b
12ff#
12b
12dd
=91
12cc#
12dd
12ee
12aa
12dd
12ff#
12ee
12ff#
12aa-
=92
12ddd-
12aa-
12bb
12aa
12bb
12ddd-
12fff#
12ddd-
12eee
=93
12ddd
12eee
12fff#
12bbb
12fff#
12aaa
12ggg#
12aaa
12bbb
=94
12dddd
12bbb
12aaa-
12eee
12ddd
12bb
12aa-
12ff#
12dd
=95
4cc#
4ee
4aa
=96
4dd
4ddd-
4bb
=97
4dd-
4ee
4aa
=98
4dd
4ddd-
4bb
=99
4dd-
4bb
4aa
=100
4b
4aa
4aa-
=101
4a
4aa-
4ff#
=102
4a-
4ff#
4ff
=103
8c
8d
8c
8B
8A
8B
=104
4r
4aa
4r
=105
4r
4ddd
4r
=106
4r
4aaa
4r
=107
8e-
8f#
8e-
8d
8c
8d
=108
4r
4ccc
4r
=109
4r
4ddd
4r
=110
4r
4cccc
8e
8f
=111
8f#
8a-
8f#
8f
8e-
8f
=112
4f#
4r
8e-
8f
=113
8f#
8a
8f#
8f
8e-
8f
=114
4f#
4r
8e-
8f
=115
8f#
8a
8cc
8a
8g#
8b
=116
8a
8cc
8ee-
8cc
8b
8dd
=117
8cc
8ee-
8ff#
8ee-
8dd
8ff
=118
8ee-
8ff#
8aa
8ff#
8ff
8aa-
=119
8ff#
8aa
8ccc
8ff
8aa-
8bb
=120
8ff#
8aa
8ccc
8ff
8aa-
8bb
=121
8ff#
8aa
8ccc
8ff
8aa-
8bb
=122
8ff#
8aa
8ccc
8ff
8aa-
8bb
=123
8ff
8aa
8ccc
8eee-
8fff
8aaa
=124
8cccc
8eeee-
8gggg
8ffff
8eeee-
8dddd
=125
8cccc
8bbb-
8aaa
8ggg
8fff
8eee
=126
8eee-
8ddd
8ccc
8bb-
8aa
8gg
=127
4ff#
8r
16r
16gg
8.ff
16ee-
=128
4dd
8r
16r
16gg
8.ff
16ee-
=129
4dd
8r
16r
16ee-
8.dd
16cc
=130
4b-
8r
16r
16a
8.b-
16cc
=131
4dd
8r
16r
16a
8.b-
16dd-
=132
4dd
8r
16r
16f
8.b-
16dd
=133
4gg
8r
16r
16gg
8.ff
16ee-
=134
4dd
8r
16r
16b-
8.a
16g
=135
4f#
8.aa
16g
8.f
16e-
=136
4d
8.bb-
16g
8.f
16e-
=137
4d
8.ff#
16e-
8.d
16c
=138
4B-
8.gg
16a
8.b-
16cc
=139
4dd
8.ggg
16dd-
8.dd
16ee
=140
4ff
8r
16r
16a
8.dd
16ff
=141
4bb-
8r
16r
16bb-
8.aa
16gg
=142
4ff
4r
4r
=143
12B
12c#
12d
12c#
12d
12e
12d
12e
12f
=144
12a-
12f
12e
12d
12e
12f
12a
12f
12e
=145
12d
12e
12f
12b-
12f
12e
12d
12e
12f
=146
12e
12g
12cc
4ggg
12B
12c
12d
=147
12c
12d
12e
12d
12e
12f
12e
12f
12g
=148
12b
12g
12f
12e-
12f
12g
12cc
12g
12f
=149
12e
12f#
12g
12dd-
12g
12f#
12e
12f#
12g
=150
12f#
12a
12dd
4aaa
12f#
12g
12a
=151
12g
12a
12b-
12a
12b-
12cc
12a
12b-
12dd-
=152
12gg
12dd
12b-
12f
12b-
12dd
12ff
12bb-
12ddd
=153
12ggg
12ddd
12bb
12gg
12dd
12b
12g
12b
12dd
=154
12gg
12ee-
12cc
4a
12ff#
12gg
12aa
=155
12gg
12aa
12bb-
12aa
12bb-
12ccc
12aa
12bb-
12ddd-
=156
12ggg
12ddd
12bb-
12ff
12bb-
12ddd
12fff
12bbb-
12dddd
=157
12gggg
12dddd
12bbb
12ggg
12ddd
12bb
12gg
12bb
12ddd
=158
12ggg
12eee-
12ccc
4aa
8r
8d
=159
8r
8e-
8r
8f
8r
8g
=160
8r
8ff
8ff
8ff
8ff
8ff
=161
8ff
8ff#
8gg
8aa
8bb-
8ccc
=162
8ddd
8eee-
8eee
8fff
8r
8dd
=163
8r
8ee-
8r
8ff
8r
8gg
=164
8r
8fff
8aaa
8bbb-
8bbb
8cccc
=165
8dddd-
8dddd
8eeee-
8ffff
8gggg
8aaaa
=166
4bbbb-
4bbb-
4bb-
=167
4r
4bbb-
4bb-
=168
4r
4bbb-
4bb-
=169
4r
4bbb-
4bb-
=170
4r
4bb-
4b-
=171
4bb-
4b-
4bb-
=172
4b-
4bb-
4b-
=173
4bb-
4b-
4bb-
=174
4a
4b
4bb
=175
4b
4bb
4b
=176
4bb
4b
4bb
=177
4b
4bb
4b
=178
4bb
4b
4bb
=179
4b
4bb
4b
=180
4bb
4b
4bb
=181
4b
4bb
4b
=182
4bb
12bbb
12bb
12bb
4bb
=183
12aa
12aa
12aa
4aaa
12aaa-
12aa-
12aa-
=184
4aa-
12ff#
12ff#
12ff#
4fff#
=185
12eee
12ee
12ee
4ee
12ee-
12ee-
12ee-
=186
4eee-
12ddd-
12dd-
12dd-
4dd-
=187
12cc
12cc
12cc
4ccc
12ddd-
12dd-
12dd-
=188
4dd-
12a-
12a-
12a-
4aa-
=189
12bb
12b
12b
4b
12a
12a
12a
=190
4aa
12dddd-
12ddd-
12ddd-
4ddd-
=191
12bb
12bb
12bb
4bbb
12aaa
12aa
12aa
=192
4aa
12aa-
12aa-
12aa-
4aaa-
=193
12fff#
12ff#
12ff#
4ff#
12ee
12ee
12ee
=194
4eee
12eee-
12ee-
12ee-
4ee-
=195
12dd
12dd
12dd
4ddd
12eee-
12ee-
12ee-
=196
4ee-
12b-
12b-
12b-
4bb-
=197
12ddd-
12dd-
12dd-
4dd-
12b
12b
12b
=198
4bb
8B
8b
8f#
8e
=199
8d
8b
8f#
8b
8bb
8ff#
=200
4r
8B
8b
8a-
8f#
=201
8g
8ee
8b
8ee
8eee
8bb
=202
4r
8b
8bb
8ff#
8ee
=203
4r
8r
8ee
8ff
8bb
=204
4r
4r
8aa-
8ddd
=205
4r
8r
8ee-
8ee
8bb-
=206
4r
4r
8gg
8ddd-
=207
4r
8r
8dd-
8dd
8aa-
=208
4r
4r
8ff
8bb
=209
8bb-
8aa
8aa-
8ff
8dd
8b
=210
4r
12bbb-
12bb-
12bb-
4bb-
=211
12aa-
12aa-
12aa-
4aaa-
12ggg
12gg
12gg
=212
4gg
12ff
12ff
12ff
4fff
=213
12eee-
12ee-
12ee-
4ee-
12dd
12dd
12dd
=214
4ddd
12ccc
12cc
12cc
4cc
=215
12b
12b
12b
4bb
12ccc
12cc
12cc
=216
4cc
12g
12g
12g
4gg
=217
12bb-
12b-
12b-
4b-
12a
12a
12a
=218
4aa
12cccc
12ccc
12ccc
4ccc
=219
12bb
12bb
12bb
4bbb
12aaa
12aa
12aa
=220
4aa
12gg
12gg
12gg
4ggg
=221
12fff#
12ff#
12ff#
4ff#
12ee
12ee
12ee
=222
4eee
12ddd
12dd
12dd
4dd
=223
12dd-
12dd-
12dd-
4ddd-
12ddd
12dd
12dd
=224
4dd
12a
12a
12a
4aa
=225
12ccc
12cc
12cc
4cc
12b
12b
12b
=226
4bb
8B
8b
8f
8e
=227
8d-
8b
8f
8b
8bb
8ff
=228
4r
8B
8b
8g
8f
=229
8f#
8ee
8cc
8cc
8eee
8ccc
=230
4r
8g
8ee
8cc
8b-
=231
4r
8r
8ff#
8gg
8ddd-
=232
4r
4r
8bb-
8eee
=233
4r
8r
8gg
8aa-
8ddd
=234
4r
4r
8bb
8fff
=235
4r
8r
8aa-
8aa
8eee-
=236
4r
8r
8aa
8ccc
8fff#
=237
8eee-
8ccc
8bb
8bb-
8aa
8aa-
=238
8ccc
8aa
8eee-
8ccc
8bb
8bb-
=239
8aa
8aa-
8gg
8ff#
8ff
8ee
=240
2ee-
4dd
=241
2b
4cc
=242
2ee-
4dd
=243
2b
4cc
=244
2gg
4ff
=245
2ee-
4dd
=246
2cc
4b-
=247
2a-
4a
=248
2dd-
4cc
=249
2a
4b-
=250
2dd-
4cc
=251
2a
4b-
=252
2ee
4ee-
=253
2dd-
4b
=254
2a
4g#
=255
2f#
4g
=256
2b-
4a
=257
2f#
4g
=258
2b-
4a
=259
2b-
4f#
=260
2b-
4f#
=261
2b-
4f#
=262
2b-
4f#
=263
8r
16r
16b-
8.a
16g
4f#
=264
8r
16r
16dd
8.cc
16b-
4a
=265
8r
16r
16ff#
8.ee-
16dd
4cc
=266
8r
16r
16bb-
8.aa
16gg
8.ff#
16bb-
=267
8.aa
16gg
8.ff#
16bb-
8.aa
16gg
=268
4ff#
8r
16r
16gg
8.ff
16ee-
=269
4dd
8r
16r
16gg
8.ff
16ee-
=270
4dd
8r
16r
16ee-
8.dd
16cc
=271
4b-
8r
16r
16a
8.b-
16cc
=272
4dd
8r
16r
16a
8.b-
16dd-
=273
4dd
8r
16r
16f
8.b-
16dd
=274
4gg
8r
16r
16gg
8.ff
16ee-
=275
4dd
8r
16r
16bb-
8.aa
16gg
=276
4ff#
8r
16r
16gg
8.ff
16ee-
=277
4dd
8r
16r
16gg
8.ff
16ee-
=278
4dd
8r
16r
16ee-
8.dd
16cc
=279
4b-
8r
16r
16dd
8.gg
16aa
=280
4bb-
8r
16r
16dd
8.gg
16bb-
=281
4ddd
8r
16r
16bb-
8.ddd
16ggg
=282
4bbb-
8r
16r
16bb-
8.aa
16gg
=283
4ff
4r
12c
12d
12e
=284
12d
12e
12f
12e
12f
12g
12f
12g
12a
=285
12cc
12a
12g
12f
12g
12a
12dd-
12a
12g
=286
12f
12g
12a
12dd
12a
12g
12f#
12g
12a
=287
12g
12b
12dd
4bb
12d
12e
12f#
=288
12e
12f#
12g
12f#
12g
12a
12g
12a
12b
=289
12dd-
12b
12a
12g
12a
12b
12dd
12b
12a
=290
12g
12a
12b-
12ee-
12b-
12a
12g
12a
12b-
=291
12a
12cc
12ee-
4ccc
12f
12g
12a
=292
12g
12a
12b-
12a
12b-
12cc
12a
12b-
12dd-
=293
12gg
12dd
12b-
12f
12b-
12dd
12ff
12bb-
12ddd
=294
12ggg
12ddd
12bb
12gg
12dd
12b
12g
12b
12dd
=295
12gg
12ee-
12cc
4a
12ff
12gg
12aa
=296
12gg
12aa
12bb-
12aa
12bb-
12ccc
12aa
12bb-
12ddd-
=297
12ggg
12bb-
12ddd
12ggg
12bbb-
12dddd
12gggg
12dddd
12bbb-
=298
12ggg
12ddd
12bb
12gg
12dd
12b
12g
12b
12dd
=299
12gg
12ee-
12cc
4a
4d
=300
4e-
4f
4g
=301
4f
4ff
4r
=302
4ff
4ff
4r
=303
4ff
4fff
4dd
=304
4ee-
4ff
4gg
=305
8ff
8gg
8aa
8bb-
8ccc
8ddd
=306
8eee-
8eee
4fff
8dd
8dd
=307
4r
8ee
8ee
4r
=308
8gg
8gg
4r
8ee-
8ee-
=309
4r
8dd
8dd
4r
=310
8dd
8dd
4r
8dd
8dd
=311
4r
8dd
8dd
4r
=312
8b-
8b-
4r
8a
8a
=313
4r
8a
8a
4r
=314
8dd-
8dd-
4dd
8dd
8ddd
=315
8ee-
8eee-
8dd
8ddd
8cc
8ccc
=316
8b
8bb
8cc
8ccc
8dd
8ddd
=317
8dd-
8ddd-
8cc
8ccc
8b-
8bb-
=318
8a
8aa
8b-
8bb-
8cc
8ccc
=319
8r
8ff
4bb-
8r
8ee-
=320
4aa-
8r
8dd-
4ff#
=321
8r
8b
4ee
8r
8a
=322
4dd
8r
8g
4cc
=323
8r
8f
8f
8b-
8r
8ff
=324
8ff
8bb-
8r
8fff
8fff
8bbb-
=325
8r
8a
8a
8dd
8r
8aa
=326
8aa
8ddd
8r
8aaa
8aaa
8dddd
=327
8r
8f
8f
8b
8r
8ff
=328
8ff
8bb
8r
8fff
8fff
8bbb
=329
8r
8cc
8cc
8ff
8r
8ccc
=330
8ccc
8fff
8r
8cccc
8cccc
8ffff
=331
8r
8f
8f
8b-
8r
8ff
=332
8ff
8bb-
8r
8fff
8fff
8bbb-
=333
8r
8a
8a
8dd
8r
8aa
=334
8aa
8ddd
8r
8aaa
8aaa
8dddd
=335
8r
8g
8g
8dd
8r
8gg
=336
8gg
8ddd
8r
8ggg
8ggg
8dddd
=337
8r
8ff
8ff
8ccc
8r
8fff
=338
8fff
8cccc
8r
8aa
8bb-
8ccc
=339
4ddd
8B-
8b-
8f
8e-
=340
8d-
8b-
8f
8b-
8bb-
8ff
=341
4r
8d
8dd
8a
8g
=342
8e
8dd
8b-
8b-
8ddd
8bb-
=343
2.r
=344
4r
4r
12d-
12b-
12f
=345
12e
12dd
12b-
12a
12ff
12dd
12dd-
12bb-
12ff
=346
12ee
12ddd
12bb-
12aa
12fff
12ddd
12ddd-
12bbb-
12fff
=347
12dddd
12bbb-
12fff
12ddd
12bb-
12ff
12dd
12b-
12f
=348
12e
12g
12f
12b-
12dd
12ff
12bb-
12ddd
12fff
=349
4bbb-
4r
4r
==
*-
